X:1
T:Jesus Is Born
T:Jesus Is Born
T:Robert Lowry
T:Robert Lowry, 1875
T:Public Domain Courtesy of the Cyber Hymnal™
T:Public Domain Courtesy of the Cyber Hymnal™
C:Robert Lowry
Z:Public Domain
Z:Courtesy of the Cyber Hymnal™
%%score ( 1 2 ) ( 3 4 )
L:1/8
Q:1/4=92
M:6/8
K:C
V:1 treble 
V:2 treble 
V:3 bass 
V:4 bass 
V:1
 [EG][CE][DF] [EG]2 z | [EG][CE][DF] [EG]2 z | [Ec][GB][FA] [EG][DF][CE] | [EG]3 [DF]2 z | %4
w: 1.~Je- sus is born!|hail to the morn!|Earth from her slum- ber is|wak- ing;|
w: 2.~Je- sus is born!|Hea- ven’s high dome|Co- vers the earth with its|glo- ry;|
 [DF][B,D][CE] [DF]2 z | [DF][B,D][CE] [DF]2 z | [DF][B,D][CE] [DF][FA][EG] | [CE]3 [EG]3 | %8
w: Je- sus is born!|wel- come the morn!|Sa- tan’s do- min- ion is|shak- ing;|
w: Je- sus is come!|o- pen thy home!|Let His bright pre- sence come|o’er thee;|
 [EG][CE][DF] [EG]2 z | [EG][CE][DF] [EG]2 z | [EG][^D^F][EG] [Gc][GB][Gc] | [Fd]3 [FA]2 z | %12
w: Je- sus is born!|Je- sus is born!|Fet- ters of dark- ness are|break- ing;|
w: Je- sus is come!|Je- sus is come!|Hast- en and pub- lish the|sto- ry—|
 [Fd]2 [Ac] [GB]2 [FA] | ([EG][CE])[EG] [Gc]3 | ([GB][DA])[DG] [DA]2 [D^F] | [DG]3- [DG]2 z | %16
w: Thro’ the gold- en|gates * of day,|Je- * sus comes a|king; *|
w: In the low- ly|Beth- * le- hem,|Je- * sus comes a|king; *|
 [DG]3 D2 [DG] | [GB]3 [DG]2 z | [DA][DG][DA] [DB]2 [DA] | [DG]3 D2 z | [GB]3 [DG]2 [GB] | %21
w: Hark to the|mu- sic|float- ing in air a-|bove us;|Sweet is the|
w: Wel- come the|Sav- ior;|ga- ther with joy a-|round Him;|Join in the|
 [Bd]3 [GB]2 z | [^FA]G[FA] [FB]2 [FA] | (G3- [FG]3) ||"^Refrain" [EG][CE][DF] [EG]2 z | %25
w: an- them|heav- en- ly an- gels|sing: *||
w: cho- rus|hea- ven- ly an- gels|sing: *|Je- sus is born!|
 [EG][CE][DF] [EG]2 z | [EG][^D^F][EG] [Gc][GB][Gc] | [Fd]3 [FA]2 z | [Fd]2 [Ac] [GB]2 [FA] | %29
w: ||||
w: Je- sus is born!|“Glo- ry to God in the|high- est!|Peace on earth, good|
 [EG]2 [Ec] [Ge]3 | [Fd]2 [Fd] (BA)[DB] | [Ec]6 |] %32
w: |||
w: will to men!”|Let the e- * cho|ring.|
V:2
 x6 | x6 | x6 | x6 | x6 | x6 | x6 | x6 | x6 | x6 | x6 | x6 | x6 | x6 | x6 | x6 | x3 D2 x | x6 | %18
 x6 | x3 D2 x | x6 | x6 | x6 | G3 x3 || x6 | x6 | x6 | x6 | x6 | x6 | x3 F2 x | x6 |] %32
V:3
 [C,C][C,G,][C,G,] [C,C]2 z | [C,C][C,G,][C,G,] [C,C]2 z | [C,G,][C,C][C,C] [C,C][C,G,][C,G,] | %3
 [G,,G,]3 [G,,G,]2 z | [G,,G,][G,,G,][G,,G,] [G,,G,]2 z | [G,,G,][G,,G,][G,,G,] [G,,G,]2 z | %6
 [G,,G,][G,,G,][G,,G,] [G,,G,][G,,G,][G,,G,] | [C,G,]3 [C,C]3 | [C,C][C,G,][C,G,] [C,C]2 z | %9
 [C,C][C,G,][C,G,] [C,C]2 z | [C,C][C,C][C,C] [C,E][D,D][E,C] | [F,A,]3 [F,C]2 z | %12
 [F,A,]2 [F,C] [F,C]2 [F,C] | (CG,)[C,C] [C,E]3 | (DC)[D,B,] [D,C]2 [D,A,] | [G,B,]3- [G,B,]2 z | %16
 [G,B,]3 [G,B,]2 [G,B,] | [G,D]3 [G,B,]2 z | [D,C][D,B,][D,C] [D,D]2 [D,C] | [G,,B,]3 [G,,B,]2 z | %20
 [G,D]3 [G,B,]2 [G,D] | [G,D]3 [G,D]2 z | [D,C][D,B,][D,C] [D,D]2 [D,C] | [G,B,]6 || %24
 [C,C][C,G,][C,G,] [C,C]2 z | [C,C][C,G,][C,G,] [C,C]2 z | [C,C][C,C][C,C] [C,E][D,D][E,C] | %27
 [F,A,]3 [F,C]2 z | [F,A,]2 [F,C] [F,C]2 [F,C] | [C,C]2 [C,C] [C,C]3 | [F,A,]2 [F,A,] G,2 G, | %31
 [C,G,]6 |] %32
V:4
 x6 | x6 | x6 | x6 | x6 | x6 | x6 | x6 | x6 | x6 | x6 | x6 | x6 | C,2 x4 | D,2 x4 | x6 | x6 | x6 | %18
 x6 | x6 | x6 | x6 | x6 | x6 || x6 | x6 | x6 | x6 | x6 | x6 | x3 G,2 G, | x6 |] %32

